assets/trix/images/link.svg

<?xml version="1.0" encoding="UTF-8" standalone="no"?>
<svg width="24px" height="24px" viewBox="0 0 24 24" version="1.1" xmlns="http://www.w3.org/2000/svg" xmlns:xlink="http://www.w3.org/1999/xlink">
  <path d="M9.87923437,13.6965 C8.20692188,12.0241875 8.20692188,9.303375 9.87923437,7.6310625 L13.2542344,4.2560625 C14.0642344,3.4460625 15.1414219,3 16.2872344,3 C17.4330469,3 18.5096719,3.4460625 19.3202344,4.2560625 C20.9925469,5.928375 20.9925469,8.6491875 19.3202344,10.3215 L17.3580547,12.0365667 C17.0008672,12.3937542 16.4226172,12.3937542 16.0654297,12.0365667 C15.7082422,11.6793792 15.7082422,11.1011292 16.0654297,10.7439417 L18.0276094,9.028875 C18.9872344,8.06925 18.9872344,6.5083125 18.0276094,5.5486875 C17.5629844,5.0840625 16.9447969,4.828125 16.2872344,4.828125 C15.6296719,4.828125 15.0120469,5.0840625 14.5468594,5.5486875 L11.1718594,8.9236875 C10.2122344,9.8833125 10.2122344,11.44425 11.1718594,12.403875 C11.5290469,12.7610625 11.5290469,13.3393125 11.1718594,13.6965 C10.9935469,13.8748125 10.7595469,13.96425 10.5255469,13.96425 C10.2915469,13.96425 10.0575469,13.8748125 9.87923437,13.6965 Z" id="Shape" fill="#000"></path>
  <path d="M4.25423437,19.4583281 C2.58192187,17.7860156 2.58192187,15.0652031 4.25423437,13.3928906 L6.17872901,11.4902344 C6.53591651,11.1330469 7.11472901,11.1330469 7.47135401,11.4902344 C7.82797901,11.8474219 7.82854151,12.4256719 7.47135401,12.7828594 L5.54685937,14.6855156 C4.58723437,15.6451406 4.58723437,17.2060781 5.54685937,18.1657031 C6.01148437,18.6303281 6.62967187,18.8862656 7.28723437,18.8862656 C7.94479687,18.8862656 8.56242187,18.6303281 9.02760937,18.1657031 L12.4026094,14.7907031 C13.3622344,13.8310781 13.3622344,12.2701406 12.4026094,11.3105156 C12.0454219,10.9533281 12.0454219,10.3750781 12.4026094,10.0178906 C12.7597969,9.66070312 13.3380469,9.66070312 13.6952344,10.0178906 C15.3675469,11.6902031 15.3675469,14.4110156 13.6952344,16.0833281 L10.3202344,19.4583281 C9.51023437,20.2683281 8.43304687,20.7143906 7.28723437,20.7143906 C6.14142187,20.7143906 5.06423437,20.2683281 4.25423437,19.4583281 Z" id="Shape" fill="#000"></path>
</svg>

<svg width="24" height="24" viewBox="0 0 24 24" xmlns="http://www.w3.org/2000/svg"><path d="M9.88 13.7c-1.67-1.68-1.67-4.4 0-6.07l3.37-3.37c.8-.8 1.9-1.26 3.04-1.26 1.13 0 2.2.45 3.02 1.26 1.67 1.67 1.67 4.4 0 6.06l-1.96 1.72c-.36.35-.94.35-1.3 0-.35-.36-.35-.94 0-1.3l1.97-1.7c.96-.97.96-2.53 0-3.5-.47-.46-1.1-.7-1.74-.7-.67 0-1.3.24-1.75.7l-3.38 3.38c-.96.96-.96 2.52 0 3.48.36.36.36.94 0 1.3-.18.17-.4.26-.64.26s-.47-.1-.65-.26z"/><path d="M4.25 19.46c-1.67-1.67-1.67-4.4 0-6.07l1.93-1.9c.36-.37.93-.37 1.3 0 .35.35.35.93 0 1.28l-1.93 1.9c-.96.97-.96 2.53 0 3.5.46.45 1.08.7 1.74.7.64 0 1.26-.25 1.73-.7l3.37-3.4c.96-.95.96-2.5 0-3.47-.35-.35-.35-.92 0-1.28.36-.36.94-.36 1.3 0 1.67 1.67 1.67 4.4 0 6.06l-3.38 3.38c-.8.8-1.9 1.25-3.03 1.25-1.16 0-2.24-.43-3.05-1.24z"/></svg>
